brandFactory_export/3.Masa/Sin conexion_3Masa.svg

<?xml version="1.0" encoding="UTF-8"?>
<svg width="24px" height="24px" viewBox="0 0 24 24" version="1.1" xmlns="http://www.w3.org/2000/svg" xmlns:xlink="http://www.w3.org/1999/xlink">
    <title>3.Masa/Sin conexion_3Masa</title>
    <g id="Symbols" stroke="none" stroke-width="1" fill="none" fill-rule="evenodd">
        <g id="3.Masa/Sin-conexion_3Masa" fill="#5CB615" fill-rule="nonzero">
            <path d="M22.1378151,15.8991597 C21.7781513,15.5361345 21.3747899,15.2168067 20.9378151,14.9546218 C20.2857143,14.5512605 19.6168067,14.3495798 18.9445378,14.3495798 C18.7563025,14.3495798 18.5680672,14.3663866 18.3764706,14.4 C17.512605,14.5445378 16.6689076,15.0285714 15.8621849,15.8352941 C15.6571429,16.0403361 15.5294118,16.1848739 15.3310924,16.4302521 C15.287395,16.4504202 15.2403361,16.4605042 15.189916,16.4605042 C14.9680672,16.4605042 14.5411765,16.3226891 13.8319328,15.8386555 C12.7731092,15.112605 11.5260504,13.902521 10.6789916,13.0521008 L10.5781513,12.9546218 C9.73109244,12.107563 8.5210084,10.8571429 7.79495798,9.79831933 C7.16638655,8.88403361 7.11932773,8.43697479 7.2,8.29579832 C7.44537815,8.09747899 7.58655462,7.97310924 7.79495798,7.76470588 C8.60168067,6.95798319 9.08571429,6.11092437 9.23361345,5.25042017 C9.37815126,4.38655462 9.19327731,3.52268908 8.67563025,2.68907563 C8.41344538,2.2487395 8.09747899,1.84537815 7.73109244,1.48907563 C6.75966387,0.521008403 5.7512605,0.0201680672 4.73613445,0 L4.67226891,0 C3.64033613,0 2.59495798,0.497478992 1.57310924,1.47563025 C1.20672269,1.82184874 0.853781513,2.31260504 0.739495798,2.47058824 L0.722689076,2.4907563 L0.702521008,2.5210084 C-0.25210084,3.90588235 -0.228571429,6.05042017 0.769747899,8.56134454 C1.81848739,11.1865546 3.85210084,14.0571429 6.65882353,16.8638655 L6.66554622,16.8672269 L6.75294118,16.9546218 L6.75966387,16.9613445 C9.56638655,19.7680672 12.4369748,21.805042 15.0621849,22.8504202 C16.3462185,23.3613445 17.5361345,23.6201681 18.5781513,23.6201681 C19.5697479,23.6201681 20.4268908,23.3882353 21.102521,22.9210084 L21.1327731,22.897479 L21.1529412,22.8840336 C21.3142857,22.7697479 21.8016807,22.4168067 22.1512605,22.0537815 C23.1495798,21.0084034 23.6470588,19.9428571 23.6235294,18.887395 C23.6033613,17.8722689 23.1058824,16.8672269 22.1378151,15.8991597 M17.5462185,11.8890756 C13.8823529,11.8890756 11.7478992,10.0369748 11.7478992,6.08403361 C11.7478992,2.12436975 13.8823529,0.272268908 17.5462185,0.272268908 C21.210084,0.272268908 23.3478992,2.12436975 23.3478992,6.08403361 C23.3478992,10.0436975 21.210084,11.8890756 17.5462185,11.8890756 Z M15.0621849,8.56470588 C15.3445378,8.84705882 15.7983193,8.85042017 16.0840336,8.56806723 L16.087395,8.56470588 L17.5462185,7.10252101 L19.0117647,8.57142857 C19.2941176,8.85378151 19.7512605,8.85378151 20.0336134,8.57478992 L20.0369748,8.57142857 C20.3193277,8.28907563 20.3193277,7.82857143 20.0369748,7.54621849 L18.5714286,6.08067227 L20.0369748,4.61176471 C20.3092437,4.31596639 20.2890756,3.85882353 19.9966387,3.58655462 C19.7176471,3.33109244 19.2907563,3.33109244 19.0151261,3.58655462 L17.5495798,5.05210084 L16.0907563,3.58991597 C15.8084034,3.30756303 15.3512605,3.30756303 15.0655462,3.58991597 C14.7831933,3.87226891 14.7831933,4.32941176 15.0655462,4.61512605 L16.5243697,6.07731092 L15.0655462,7.5394958 C14.7798319,7.82521008 14.7798319,8.28235294 15.0621849,8.56470588 L15.0621849,8.56470588 Z" id="Sin-conexion_3Masa"></path>
        </g>
    </g>
</svg>

<svg width="24" height="24" viewBox="0 0 24 24" xmlns="http://www.w3.org/2000/svg"><path d="M22.138 15.9a6.142 6.142 0 00-1.2-.945c-.652-.404-1.321-.605-1.993-.605-.189 0-.377.016-.569.05-.863.145-1.707.629-2.514 1.435-.205.205-.333.35-.53.595a.333.333 0 01-.142.03c-.222 0-.649-.137-1.358-.621-1.059-.726-2.306-1.936-3.153-2.787l-.1-.097c-.848-.847-2.058-2.098-2.784-3.157-.629-.914-.676-1.361-.595-1.502.245-.199.387-.323.595-.531.807-.807 1.29-1.654 1.439-2.515.144-.863-.04-1.727-.558-2.56a5.833 5.833 0 00-.945-1.2C6.76.52 5.751.02 4.736 0h-.064C3.64 0 2.595.497 1.573 1.476c-.366.346-.72.837-.834.995l-.016.02-.02.03c-.955 1.385-.932 3.53.067 6.04 1.048 2.626 3.082 5.496 5.889 8.303l.007.003.087.088.007.006c2.806 2.807 5.677 4.844 8.302 5.89 1.284.51 2.474.77 3.516.77.992 0 1.849-.233 2.525-.7l.03-.024.02-.013c.161-.114.649-.467.998-.83.999-1.046 1.496-2.111 1.473-3.167-.02-1.015-.518-2.02-1.486-2.988m-4.592-4.01c-3.664 0-5.798-1.852-5.798-5.805 0-3.96 2.134-5.812 5.798-5.812s5.802 1.852 5.802 5.812-2.138 5.805-5.802 5.805zm-2.484-3.324a.722.722 0 001.022.003l.003-.003 1.46-1.462 1.465 1.468a.725.725 0 001.022.004l.003-.004a.726.726 0 000-1.025l-1.466-1.465 1.466-1.47a.724.724 0 00-1.022-1.025L17.55 5.053 16.09 3.59a.726.726 0 00-1.024 0 .726.726 0 000 1.025l1.458 1.462-1.458 1.462a.723.723 0 00-.004 1.026z" fill="#5CB615" fill-rule="nonzero"/></svg>
